icons/default/Stocks.svg

<path
	d="M20.7546 11.6829C20.7878 11.681 20.8211 11.68 20.8545 11.68C21.7072 11.68 22.5 12.3076 22.5 13.2C22.5 14.0924 21.7072 14.72 20.8545 14.72C20.0019 14.72 19.2091 14.0924 19.2091 13.2C19.2091 12.7133 19.4449 12.3054 19.7976 12.0351L15.7493 5.42604C15.5536 5.50007 15.3423 5.54 15.1273 5.54C14.9491 5.54 14.7735 5.5126 14.6073 5.4611L9.70233 18.2523C9.82733 18.4639 9.9 18.7098 9.9 18.98C9.9 19.8724 9.10719 20.5 8.25454 20.5C7.47675 20.5 6.74877 19.9778 6.62693 19.2087L2.88704 15.5757C2.65919 15.6818 2.40509 15.74 2.14545 15.74C1.2928 15.74 0.499998 15.1124 0.499998 14.22C0.499998 13.3276 1.2928 12.7 2.14545 12.7C2.9981 12.7 3.79091 13.3276 3.79091 14.22C3.79091 14.4684 3.72947 14.6963 3.62242 14.8959L6.91475 18.0941C7.22293 17.7 7.7273 17.46 8.25454 17.46C8.47438 17.46 8.69024 17.5017 8.88956 17.5789L13.762 4.87236C13.587 4.63508 13.4818 4.34512 13.4818 4.02C13.4818 3.12758 14.2746 2.5 15.1273 2.5C15.9799 2.5 16.7727 3.12758 16.7727 4.02C16.7727 4.3142 16.6866 4.57962 16.5405 4.80326L20.7546 11.6829Z"
	stroke="black" stroke-miterlimit="10" />

<path d="M20.755 11.683c.033-.002.066-.003.1-.003.852 0 1.645.628 1.645 1.52s-.793 1.52-1.645 1.52c-.853 0-1.646-.628-1.646-1.52 0-.487.236-.895.589-1.165l-4.049-6.609a1.761 1.761 0 0 1-1.142.035L9.702 18.252c.125.212.198.458.198.728 0 .892-.793 1.52-1.645 1.52-.778 0-1.506-.522-1.628-1.291l-3.74-3.633a1.762 1.762 0 0 1-.742.164C1.293 15.74.5 15.112.5 14.22s.793-1.52 1.645-1.52c.853 0 1.646.628 1.646 1.52 0 .248-.062.476-.169.676l3.293 3.198a1.712 1.712 0 0 1 1.34-.634c.22 0 .435.042.635.119l4.872-12.707a1.421 1.421 0 0 1-.28-.852c0-.892.793-1.52 1.645-1.52.853 0 1.646.628 1.646 1.52 0 .294-.086.56-.232.783l4.214 6.88Z" stroke="#000" stroke-miterlimit="10"/>
